!!!COM: Leszczyński, Władysław
!!!CDT: 1616-1680-09-24
!!!TXO: Latin
!!!OTL@@LAT: Gloria
!!!ODT: 
!!!ARL: Archiwum Kapituły Katedralnej na Wawelu
!!!voices:	4
!!title: @{OTL}, @{GTL}, ed. @{ENC}
!!!pag:
!!!GTL: Missa cum Credo per Octavas
!!!EFL: 
!!!YEM: Creative Commons CC/BY/NC/SA 4.0
!!!ENC: Marcin Konik
!!!EED: Marcin Konik
!!!EEV: 
!!!ONB: Encoded in vim by Marcin Konik
!!!CharacterEncoding: utf-8
!!!RDF**kern: l=long note in original notation
!!!RDF**kern: i=editorial accidental
!!muse2ps: z14jc180F
!!!END: 2015-02-13
!!!YOO:
**recip	**kern	**text	**kern	**text	**kern	**text	**kern	**text
*	*part4	*part4	*part3	*part3	*part2	*part2	*part1	*part1
*	*staff4	*staff4	*staff3	*staff3	*staff2	*staff2	*staff1	*staff1
*	*clefF4	*	*clefGv2	*	*clefG2	*	*clefG2	*
*	*k[b-]	*	*k[b-]	*	*k[b-]	*	*k[b-]	*
*	*M3/1	*	*M3/1	*	*M3/1	*	*M3/1	*
=1-	=1-	=1-	=1-	=1-	=1-	=1-	=1-	=1-
1.	1.G	Et	1.B-	Et	1.d	Et	1.b-	Et
2	2D	in	2B-	in	2d	in	2a	in
2	2BB-	ter-	2B-	ter-	2d	ter-	2g	ter-
2	2GG	-ra	2B-	-ra	2e	-ra	2g	-ra
=2	=2	=2	=2	=2	=2	=2	=2	=2
0	0FF	pax	0c	pax	0f	pax	0a	pax
1	1F	in	1c	in	1f	in	1a	in
=3	=3	=3	=3	=3	=3	=3	=3	=3
1	1BB-	ter-	1d	ter-	1f	ter-	1b-	ter-
1	1FF	-ra	1c	-ra	1f	-ra	1a	-ra
1	1GG	ho-	1B-	ho-	1d	ho-	1g	ho-
=4	=4	=4	=4	=4	=4	=4	=4	=4
1.	1.D	-mi-	1.A	-mi-	1.d	-mi-	1.f	-mi-
2	2D	-ni-	2A	-ni-	2d	-ni-	2f	-ni-
1	1D	-bus	1A	-bus	1d	-bus	1f	-bus
=5	=5	=5	=5	=5	=5	=5	=5	=5
1.	1.BB-	bo-	1.f	bo-	1.f	bo-	1.b-	bo-
2	2BB-	-nae	2f	-nae	2f	-nae	2b-	-nae
1	1E-	vo-	1e-	vo-	1g	vo-	1cc	vo-
=6	=6	=6	=6	=6	=6	=6	=6	=6
1	1BB-	-lun-	1d	-lun-	1f	-lun-	1b-	-lun-
0	0F	-ta-	0c	-ta-	0f	-ta-	0a	-ta-
=7	=7	=7	=7	=7	=7	=7	=7	=7
1	1BB-	-tis	1B-	-tis	1f	-tis	1b-	-tis
1	1B-	bo-	1d	bo-	1f	bo-	1b-	bo-
1	1G	-nae	1B-	-nae	1d	-nae	1b-	-nae
=8	=8	=8	=8	=8	=8	=8	=8	=8
1	1C	vo-	1G	vo-	1g	vo-	1cc	vo-
1	1G	-lun-	1G	-lun-	1g	-lun-	1b-	-lun-
1	1D	-ta-	1A	-ta-	1f#	-ta-	1a	-ta-
=9	=9	=9	=9	=9	=9	=9	=9	=9
0.	0.G	-tis	0.B-	-tis	0.g	-[tis]	0.g	-[tis]
=10	=10	=10	=10	=10	=10	=10	=10	=10
1	1GG	lau-	1d	lau-	1g	lau-	1g	lau-
2	1GG	-da-	2d	-da-	1g	-da-	2g	-da-
2	.	.	2c	.	.	.	2a	.
2	1GG	-mus	1B-	-mus	1g	-mus	2b-	-mus
2	.	.	.	.	.	.	2cc	.
=11	=11	=11	=11	=11	=11	=11	=11	=11
1	1D	te	1A	te	1f	te	1a	te
1	1.D	be-	1A	be-	1.f	be-	1a	be-
2	.	.	1A	-ne-	.	.	1a	-ne-
2	2D	.	.	.	2f	-ne-	.	.
=12	=12	=12	=12	=12	=12	=12	=12	=12
1.	1.BB-	-di-	1.f	-di-	1.f	-di-	1.dd	-di-
2	2BB-	-ci-	2f	-ci-	2g	-ci-	2dd	-ci-
2	1BB-	-mus	1f	-mus	2a	-mus	1dd	-mus
2	.	.	.	.	2b-	.	.	.
=13	=13	=13	=13	=13	=13	=13	=13	=13
1	0C	te	1e-	te	1g	te	0cc	te
1	.	.	1e-	be-	1g	be-	.	.
2	2D	be-	1d	-ne-	1f	-ne-	2b-	be-
2	2D	-ne-	.	.	.	.	2b-	-ne-
=14	=14	=14	=14	=14	=14	=14	=14	=14
1	1E-	-di-	1.d	-di-	1.g	-di-	1.b-	-di-
2	1.F	-ci-	.	.	.	.	.	.
2	.	.	2c	-ci-	2f	-ci-	2a	-ci-
2	.	.	1c	-mus	1f	-mus	1a	-mus
2	2F	-mus	.	.	.	.	.	.
=15	=15	=15	=15	=15	=15	=15	=15	=15
0.	0.BB-	te	0.d	te	0.f	te	0.b-	te
=16	=16	=16	=16	=16	=16	=16	=16	=16
0	0D	a-	0F	a-	0d	a-	0a	a-
1	1D	-do-	1F#	-do-	1d	-do-	1a	-do-
=17	=17	=17	=17	=17	=17	=17	=17	=17
0	0GG	-ra-	0G	-ra-	0d	-ra-	0b-	-ra-
1	1D	-mus	1F	-mus	1d	-mus	1a	-mus
=18	=18	=18	=18	=18	=18	=18	=18	=18
1	1F	te	1A	te	1f	te	1cc	te
1	1F	a-	1A	a-	1f	a-	1cc	a-
1	1F	-do-	1A	-do-	1f	-do-	1cc	-do-
=19	=19	=19	=19	=19	=19	=19	=19	=19
0	0BB-	-ra-	0B-	-ra-	0d	-ra-	0dd	-ra-
1	1F	-mus	1A	-mus	1f	-mus	1cc	-mus
=20	=20	=20	=20	=20	=20	=20	=20	=20
1	1B-	.	1d	te	1d	te	1b-	te
1	1F	glo-	1c	glo-	1f	glo-	1a	glo-
2	2G	-ri-	2B-	-ri-	2d	-ri-	2g	-ri-
2	2G	-fi-	2B-	-fi-	2d	-fi-	2g	-fi-
=21	=21	=21	=21	=21	=21	=21	=21	=21
0	0D	-ca-	0A	-ca-	0d	-ca-	0f#	-ca-
1	1D	-mus	1A	-mus	1d	-mus	1f#	-mus
=22	=22	=22	=22	=22	=22	=22	=22	=22
0.	0.G	te	0.B-	te	0.d	te	0.g	te
=23	=23	=23	=23	=23	=23	=23	=23	=23
1.	1.G	gra-	1.d	gra-	1.d	gra-	1.b-	gra-
2	2A	-ti-	2c	-ti-	2d	-ti-	2cc	-ti-
1	1B-	-as	1B-	-as	1d	-as	1dd	-as
=24	=24	=24	=24	=24	=24	=24	=24	=24
1.	1.B-	gra-	1.B-	gra-	1.d	gra-	1.dd	gra-
2	2A	-ti-	2c	-ti-	2d	-ti-	2cc	-ti-
1	1G	.	1d	.	1d	.	1b-	.
=25	=25	=25	=25	=25	=25	=25	=25	=25
1	1BB-	-a-	1B-	-a-	1d	-a-	1dd	-a-
2	2FF	-gi-	2A	-gi-	2f	-gi-	2cc	-gi-
2	2FF	-mus	2G	-mus	2f	-mus	2cc	-mus
1	1GG	ti-	1G	ti-	1d	ti-	1b-	ti-
=26	=26	=26	=26	=26	=26	=26	=26	=26
1	0.D	-bi	1F	-bi	0.d	-bi	1a	-bi
2	.	.	2F	pro-	.	.	2a	pro-
2	.	.	2F	-pter	.	.	2a	-pter
2	.	.	2F	ma-	.	.	2a	ma-
2	.	.	2F	-gnam	.	.	2a	-gnam
=27	=27	=27	=27	=27	=27	=27	=27	=27
1.	1.G	pro-	1.d	glo-	1.g	pro-	1.b-	glo-
2	2G	-pter	2d	-ri-	2d	-pter	2b-	-ri-
2	2F	ma-	1d	-am	2d	ma-	1b-	-am
2	2G	-gnam	.	.	2g	-gnam	.	.
=28	=28	=28	=28	=28	=28	=28	=28	=28
1.	1.C	glo-	1.G	pro-	1.e	glo-	1.cc	pro-
2	2C	-ri-	2G	-pter	2e	-ri-	2cc	-pter
2	1C	-am	2G	ma-	1e	-am	2cc	ma-
2	.	.	2G	-gnam	.	.	2cc	-gnam
=29	=29	=29	=29	=29	=29	=29	=29	=29
1.	1.F	pro-	1.c	glo-	1.f	pro-	1.a	glo-
2	2F	-pter	2c	-ri-	2c	-pter	2a	-ri-
2	2F	ma-	1c	-am	2c	ma-	1a	-am
2	2F	-gnam	.	.	2e	-gnam	.	.
=30	=30	=30	=30	=30	=30	=30	=30	=30
1.	1.BB-	glo-	1.d	pro-	1.f	glo-	1.b-	pro-
2	2BB-	-ri-	2d	-pter	2f	-ri-	2b-	-pter
2	1BB-	-am	2d	ma-	1f	-am	2b-	ma-
2	.	.	2d	-gnam	.	.	2b-	-gnam
=31	=31	=31	=31	=31	=31	=31	=31	=31
1	1BB-	glo-	1d	glo-	1d	glo-	1b-	glo-
2	2C	-ri-	2c	-ri-	2e-	-ri-	2a	-ri-
2	2C	-am	2B-	.	2e-	-am	2g	.
2	1D	tu-	1A	-tu-	1d	tu-	2g	-tu-
2	.	.	.	.	.	.	2f#	.
=32	=32	=32	=32	=32	=32	=32	=32	=32
1	1GG	-am	1B-	-am	1d	-am	1g	-am
2	2GG	Do-	2B-	Do-	2d	Do-	2g	Do-
2	2GG	-mi-	2B-	-mi-	2d	-mi-	2g	-mi-
1	1FF	-ne	1c	-ne	1f	-ne	1a	-ne
=33	=33	=33	=33	=33	=33	=33	=33	=33
2	0BB-	De-	0d	De-	2d	De-	0b-	De-
2	.	.	.	.	2c	.	.	.
2	.	.	.	.	2d	.	.	.
2	.	.	.	.	2e	.	.	.
1	1BB-	-us	1d	-us	1f	-us	1b-	-us
=34	=34	=34	=34	=34	=34	=34	=34	=34
1.	0BB-	Rex	1.d	Rex	1.f	Rex	0b-	Rex
2	.	.	2c	.	2e	.	.	.
2	1BB-	cae-	2d	cae-	1d	cae-	1b-	cae-
2	.	.	2e	.	.	.	.	.
=35	=35	=35	=35	=35	=35	=35	=35	=35
0	0F	-le-	0c	-le-	0f	-le-	0a	-le-
1	1FF	-stis	1c	-stis	1a	-stis	1a	-stis
=36	=36	=36	=36	=36	=36	=36	=36	=36
1	1BB-	De-	1d	De-	1d	De-	1b-	De-
1	1BB-	-us	1d	-us	1d	-us	1b-	-us
1	1F	Pa-	1c	Pa-	1f	Pa-	1a	Pa-
=37	=37	=37	=37	=37	=37	=37	=37	=37
1.	0G	-ter	1.B-	-ter	0d	-ter	1.g	-ter
2	.	.	2A	.	.	.	2f	.
2	1C	o-	2B-	o-	1g	o-	2g	o-
2	.	.	2c	.	.	.	2a	.
=38	=38	=38	=38	=38	=38	=38	=38	=38
2	0D	-mni-	0A	-mni-	2d	-mni-	1g	-mni-
2	.	.	.	.	2e	.	.	.
2	.	.	.	.	2f#	-po-	1.f#	-po-
2	.	.	.	.	2g	.	.	.
2	1D	-po-	1A	-po-	2a	.	.	.
2	.	.	.	.	2d	.	2f#	.
=39	=39	=39	=39	=39	=39	=39	=39	=39
0.	0.G	-tens	0.B-	-tens	0.d	-tens	0.g	-tens
=40	=40	=40	=40	=40	=40	=40	=40	=40
1.	1.G	Do-	1.d	Do-	1.g	Do-	1.b-	Do-
2	2G	-mi-	2d	-mi-	2g	-mi-	2b-	-mi-
1	1D	-ne	1d	-ne	1f	-ne	1a	-ne
=41	=41	=41	=41	=41	=41	=41	=41	=41
0	0AA	Fi-	0c	Fi-	0a	Fi-	0a	Fi-
1	1D	-li	1d	-li	1f	-li	1a	-li
=42	=42	=42	=42	=42	=42	=42	=42	=42
1.	1.B-	Do-	1.B-	Do-	1.f	Do-	1.dd	Do-
2	2B-	-mi-	2c	-mi-	2f	-mi-	2dd	-mi-
1	1B-	-ne	1d	-ne	1f	-ne	1dd	-ne
=43	=43	=43	=43	=43	=43	=43	=43	=43
2	1.c	Fi-	1.e	Fi-	2c	Fi-	1.cc	Fi-
2	.	.	.	.	2d	.	.	.
2	.	.	.	.	2e	-li	.	.
2	2c	.	2e	.	2c	.	2cc	.
2	2B-	-u-	2d	-u-	2d	u-	2b-	-u-
2	2B-	-ni-	2d	-ni-	2e	-ni-	2b-	-ni-
=44	=44	=44	=44	=44	=44	=44	=44	=44
1.	1.F	-ge-	1.c	-ge-	1.f	-ge-	1.a	-ge-
2	2F	-ni-	2c	-ni-	2f	-ni-	2a	-ni-
1	1BB-	-te	1d	-te	1f	-te	1b-	-te
=45	=45	=45	=45	=45	=45	=45	=45	=45
1.	1.BB-	Je-	0B-	Je-	0d	Je-	1.dd	Je-
2	2AA	.	.	.	.	.	2cc	.
1	1GG	-su	1B-	-su	1g	-su	1b-	-su
=46	=46	=46	=46	=46	=46	=46	=46	=46
1	1E-	Je-	1G	Je-	1g	Je-	1b-	Je-
1	1D	-su	1A	-su	1.f#	-su	1.a	-su
2	1D	Chri-	1A	Chri-	.	.	.	.
2	.	.	.	.	2f#	Chri-	2a	Chri-
=47	=47	=47	=47	=47	=47	=47	=47	=47
0.	0.G	-ste	0.B-	-ste	0.g	-ste	0.g	-ste
=48	=48	=48	=48	=48	=48	=48	=48	=48
1	0.r	.	1G	Do-	1g	Do-	1g	Do-
2	.	.	2G	-mi-	2g	-mi-	2g	-mi-
2	.	.	2G	-ne	2g	-ne	2g	-ne
2	.	.	2D	De-	2f	De-	2a	De-
2	.	.	2D	-us	2f	-us	2a	-us
=49	=49	=49	=49	=49	=49	=49	=49	=49
1	1GG	Do-	1G	Do-	1g	Do-	1b-	Do-
2	2GG	-mi-	2G	-mi-	2d	-mi-	2b-	-mi-
2	2GG	-ne	2G	-ne	2d	-ne	2b-	-ne
2	2D	De-	2A	De-	2d	De-	2a	De-
2	2D	-us	2c	.	2d	.	2a	.
=50	=50	=50	=50	=50	=50	=50	=50	=50
1	1.BB-	A-	1.d	-A-	1.d	-A-	1b-	-A-
2	.	.	.	.	.	.	2b-	-gnus
2	2F	-gnus	2c	-gnus	2f	-gnus	2a	.
1	1G	De-	1B-	De-	1d	De-	1g	De-
=51	=51	=51	=51	=51	=51	=51	=51	=51
1	1D	-i	1A	-i	1d	-i	1f	-i
1.	1.D	Fi-	1.A	Fi-	1.d	Fi-	1.f	Fi-
2	2D	-li-	2A	-li-	2d	-li-	2f	-li-
=52	=52	=52	=52	=52	=52	=52	=52	=52
1	1BB-	-us	1B-	-us	1.f	-us	1.dd	-us
2	1BB-	Pa-	1B-	Pa-	.	.	.	.
2	.	.	.	.	2f	Pa-	2dd	Pa-
2	1F	-tris	1A	-tris	2f	-tris	1cc	-tris
2	.	.	.	.	2e	.	.	.
=53	=53	=53	=53	=53	=53	=53	=53	=53
1.	1.G	Fi-	1.G	Fi-	1.d	Fi-	1.b-	Fi-
2	2G	-li-	2G	-li-	2d	-li-	2b-	-li-
1	1D	-us	1F	-us	1d	-us	1a	-us
=54	=54	=54	=54	=54	=54	=54	=54	=54
1	1BB-	Fi-	1d	Fi-	1d	Fi-	1b-	Fi-
2	2C	-li-	2c	-li-	2e-	-li-	2a	-li-
2	2C	-us	2B-	-us	2e-	.	2g	-us
1	1D	Pa-	1A	Pa-	1d	-Pa-	1f#	Pa-
=55	=55	=55	=55	=55	=55	=55	=55	=55
0	0GG	-tris	0G	-tris	0d	-tris	0g	-tris
1	1GG	qui	1G	qui	1d	qui	1b-	qui
=56	=56	=56	=56	=56	=56	=56	=56	=56
1	1G	tol-	1B-	tol-	1d	tol-	1g	tol-
1	1GG	-lis	1B-	-lis	1d	-lis	1g	-lis
1	1D	pec-	1A	pec-	1f	pec-	1f	pec-
=57	=57	=57	=57	=57	=57	=57	=57	=57
1.	1.GG	-ca-	1.B-	-ca-	1.d	-ca-	1.g	-ca-
2	2AA	.	2c	.	2e	.	2a	.
1	1BB-	-ta	1d	-ta	1f	-ta	1b-	-ta
=58	=58	=58	=58	=58	=58	=58	=58	=58
0	0FF	mun-	0c	mun-	0f	mun-	0a	mun-
1	1GG	.	1B-	.	1d	.	1g	.
=59	=59	=59	=59	=59	=59	=59	=59	=59
0	0FF	-di	0c	-di	0f	-di	0a	-di
2	2F	mi-	2c	mi-	2f	mi-	2a	mi-
2	2F	-se-	2c	-se-	2f	-se-	2a	-se-
=60	=60	=60	=60	=60	=60	=60	=60	=60
1.	1.BB-	-re-	1.d	-re-	1.f	-re-	1.b-	-re-
2	2BB-	-re	2d	-re	2f	-re	2b-	-re
2	2BB-	mi-	2d	mi-	2f	mi-	2b-	mi-
2	2BB-	-se-	2d	-se-	2f	-se-	2b-	-se-
=61	=61	=61	=61	=61	=61	=61	=61	=61
1.	1.F	-re-	1.c	-re-	1.f	-re-	0a	-re-
2	2F	-re	2c	-re	2f	-re	.	.
2	2G	mi-	2B-	mi-	2d	mi-	1g	-re
2	2G	-se-	2B-	-se-	2d	-se-	.	.
=62	=62	=62	=62	=62	=62	=62	=62	=62
2	2C	-re-	1c	-re-	2e-	-re-	1g	no-
2	2C	.	.	.	2e-	.	.	.
1	0D	-no-	1B-	-re	0d	-no-	0f#	.
1	.	.	1A	no-	.	.	.	.
=63	=63	=63	=63	=63	=63	=63	=63	=63
0	0GG	-bis	0G	-bis	0d	-bis	0g	-bis
1	1G	qui	1G	qui	1d	qui	1g	qui
=64	=64	=64	=64	=64	=64	=64	=64	=64
1	1F	tol-	1c	tol-	1f	tol-	1a	tol-
1	1F	-lis	1c	-lis	1f	-lis	1a	-lis
1	1D	pec-	1B-	pec-	1f	pec-	1b-	pec-
=65	=65	=65	=65	=65	=65	=65	=65	=65
1.	0C	-ca-	0G	-ca-	0e	-ca-	1.cc	-ca-
2	.	.	.	.	.	.	2b-	.
1	1F	-ta	1A	-ta	1f	-ta	1a	.
=66	=66	=66	=66	=66	=66	=66	=66	=66
1	1BB-	mun-	1F	mun-	1d	mun-	1b-	-ta
0	0C	.	0G	.	0e	.	0g	mun-
=67	=67	=67	=67	=67	=67	=67	=67	=67
0.	0.FF	-di	0.A	-di	0.f	-di	0.a	-di
=68	=68	=68	=68	=68	=68	=68	=68	=68
1.	1.F	su-	1.c	su-	1.c	su-	1.a	su-
2	2F	-sci-	2B-	-sci-	2d	-sci-	2b-	-sci-
1	1F	-pe	1A	-pe	1c	-pe	1cc	-pe
=69	=69	=69	=69	=69	=69	=69	=69	=69
1.	1.B-	su-	1.B-	su-	1.d	su-	1.dd	su-
2	2B-	-sci-	2F	-sci-	2e	-sci-	2cc	-sci-
1	1B-	.	1B-	.	1f	.	1dd	.
=70	=70	=70	=70	=70	=70	=70	=70	=70
1.	1.BB-	-de-	1.B-	-de-	1.f	-de-	1.dd	-de-
2	2BB-	-pre-	2B-	-pre-	2d	-pre-	2dd	-pre-
2	2BB-	-ca-	2B-	-ca-	2f	-ca-	2dd	-ca-
2	2BB-	-ti-	2B-	-ti-	2f	-ti-	2dd	-ti-
=71	=71	=71	=71	=71	=71	=71	=71	=71
1.	0C	-o-	1.G	-o-	0e-	-o-	0cc	-o-
2	.	.	2A	.	.	.	.	.
2	1C	-nem	2G	.	1e-	-nem	1cc	-nem
2	.	.	2F	.	.	.	.	.
=72	=72	=72	=72	=72	=72	=72	=72	=72
1	1C	no-	1E-	-nem	1e-	no-	1cc	no-
0	0G	.	0G	no-	0e-	.	0b-	.
=73	=73	=73	=73	=73	=73	=73	=73	=73
0	0C	-stram	0G	-stram	0e	-stram	0cc	-stram
1	1C	qui	1G	qui	1e	qui	1cc	qui
=74	=74	=74	=74	=74	=74	=74	=74	=74
1	1G	se-	1d	se-	1g	se-	1b-	se-
2	2G	-des	2d	-des	1g	-des	2b-	-des
2	2A	.	2c	.	.	.	2cc	.
1	1B-	ad	1B-	ad	1d	ad	1dd	ad
=75	=75	=75	=75	=75	=75	=75	=75	=75
1.	1.B-	de-	1.G	de-	1.d	de-	1.dd	de-
2	2A	-xte-	2G	-xte-	2f	-xte-	2dd	-xte-
2	2G	-ram	2G	-ram	2g	-ram	2b-	-ram
2	2G	ad	2G	ad	2d	ad	2b-	ad
=76	=76	=76	=76	=76	=76	=76	=76	=76
1.	1.F	de-	1.A	de-	1.f	de-	1.cc	de-
2	2F	-xte-	2A	-xte-	2f	-xte-	2cc	-xte-
1	1G	-ram	1B-	-ram	1g	-ram	1b-	-ram
=77	=77	=77	=77	=77	=77	=77	=77	=77
0	0D	Pa-	0A	Pa-	0f#	Pa-	0a	Pa-
1	1G	-tris	1G	-tris	1g	-tris	1g	-tris
=78	=78	=78	=78	=78	=78	=78	=78	=78
1.	1.B-	mi-	1.d	mi-	1.f	mi-	1.b-	mi-
2	2B-	-se-	2d	-se-	2d	-se-	2b-	-se-
2	2F	-re-	2c	-re-	2f	-re-	2a	-re-
2	2F	-re	2c	-re	2f	-re	2a	-re
=79	=79	=79	=79	=79	=79	=79	=79	=79
1.	1.G	mi-	1.B-	mi-	1.d	mi-	1.g	mi-
2	2G	-se-	2B-	-se-	2d	-se-	2g	-se-
2	2D	-re-	2A	-re-	2d	-re-	2f	-re-
2	2D	-re	2A	-re	2d	-re	2f	-re
=80	=80	=80	=80	=80	=80	=80	=80	=80
2	1BB-	no-	2d	mi-	1d	no-	2b-	mi-
2	.	.	2d	-se-	.	.	2b-	-se-
2	1C	.	2c	-re-	1e-	.	2a	-re-
2	.	.	2B-	.	.	.	2g	.
2	1D	.	1A	-no-	1d	.	2g	-no-
2	.	.	.	.	.	.	2f#	.
=81	=81	=81	=81	=81	=81	=81	=81	=81
0.	0.G	-bis	0.G	-bis	0.d	-bis	0.g	-bis
=82	=82	=82	=82	=82	=82	=82	=82	=82
1.	1.G	quo-	1.B-	quo-	1.g	quo-	1.b-	quo-
2	2A	-ni-	2c	-ni-	2f	-ni-	2a	-ni-
2	1B-	-am	1d	-am	2e	-am	1g	-am
2	.	.	.	.	2d	.	.	.
=83	=83	=83	=83	=83	=83	=83	=83	=83
1.	1.F	quo-	1.c	quo-	1.f	quo-	1.a	quo-
2	2F	-ni-	2c	-ni-	2f	-ni-	2a	-ni-
1	1G	.	1B-	.	1d	.	1g	.
=84	=84	=84	=84	=84	=84	=84	=84	=84
1	1C	-tu	1G	-tu	1e-	-tu	1g	-tu
1	1D	so-	1A	so-	1d	so-	1f#	so-
1	1D	-lus	1A	-lus	1d	-lus	1f#	-lus
=85	=85	=85	=85	=85	=85	=85	=85	=85
0	0G	San-	0B-	San-	0d	San-	0g	San-
1	1GG	-ctus	1B-	-ctus	1d	-ctus	1g	-ctus
=86	=86	=86	=86	=86	=86	=86	=86	=86
1	1F	tu	1c	tu	1f	tu	1a	tu
1	1F	so-	1c	so-	1f	so-	1a	[so-
1	1D	-lus	1B-	-lus	1f	-lus	1b-	-lus]
=87	=87	=87	=87	=87	=87	=87	=87	=87
1.	1.C	Do-	1.G	Do-	1.e	Do-	1.cc	Do-
2	2C	-mi-	2G	-mi-	2e	-mi-	2cc	-mi-
2	2C	-nus	2G	-nus	2e	-nus	2b-	-nus
2	2C	tu	2G	tu	2e	tu	2cc	tu
=88	=88	=88	=88	=88	=88	=88	=88	=88
1	1D	so-	1B-	so-	1d	so-	1g	so-
1	1D	-lus	1B-	-lus	1d	-lus	1g	-lus
2	2E-	al-	2B-	al-	2d	al-	2g	al-
2	2C	.	2c	.	2e-	.	2a	.
=89	=89	=89	=89	=89	=89	=89	=89	=89
1.	1.BB-	-tis-	1.d	-tis-	1.f	-tis-	1.b-	-tis-
2	2BB-	-si-	2d	-si-	2f	-si-	2b-	-si-
2	2BB-	-mus	2d	-mus	2f	-mus	2b-	-mus
2	2B-	al-	2d	al-	2f	al-	2b-	al-
=90	=90	=90	=90	=90	=90	=90	=90	=90
1.	1.B-	-tis-	1.B-	-tis-	1.d	-tis-	1.dd	-tis-
2	2A	-si-	2B-	-si-	2d	-si-	2cc	-si-
2	1G	-mus	2B-	-mus	2g	-mus	2b-	-mus
2	.	.	2B-	Je-	2g	Je-	2a	Je-
=91	=91	=91	=91	=91	=91	=91	=91	=91
1	1G	Je-	1G	-su	1g	-su	1b-	-su
1.	1.D	-su	0A	Chri-	0f#	Chri-	0a	Chri-
2	2D	Chri-	.	.	.	.	.	.
=92	=92	=92	=92	=92	=92	=92	=92	=92
0.	0.G	-ste	0.B-	-ste	0.g	-ste	0.g	-ste
=93	=93	=93	=93	=93	=93	=93	=93	=93
1	1B-	cum	1B-	cum	1d	cum	1dd	cum
2	1G	San-	1d	San-	2d	San-	1b-	San-
2	.	.	.	.	2c	.	.	.
2	1B-	-cto	1B-	-cto	2d	-cto	1dd	-cto
2	.	.	.	.	2e	.	.	.
=94	=94	=94	=94	=94	=94	=94	=94	=94
1.	1.A	Spi-	1.A	Spi-	1.f	Spi-	1.cc	Spi-
2	2G	-ri-	2B-	-ri-	2f	-[ri-	2b-	-ri-
1	1F	-tu	1c	-tu	1f	-tu	1a	-tu
=95	=95	=95	=95	=95	=95	=95	=95	=95
1	1G	cum	1d	cum	1d	cum	1b-	cum
1	1E-	San-	1B-	San-	1e-	San-	1g	San-
1	1G	-cto	1d	-cto	1d	-cto	1b-	-cto
=96	=96	=96	=96	=96	=96	=96	=96	=96
1.	1.F	Spi-	1.A	Spi-	1.c	Spi-	1.a	Spi-
2	2E	-ri-	2A	-ri-	2c	-ri-	2g	-ri-
2	2D	.	2B-	.	2d	-tu	2f	.
2	2D	-in	2B-	-in	2d	in	2f	-in
=97	=97	=97	=97	=97	=97	=97	=97	=97
1.	1.BB-	glo-	1.d	glo-	1.f	glo-	1.b-	glo-
2	2BB-	-ri-	2d	-ri-	2f	-ri-	2b-	-ri-
1	1BB-	-a	1d	-a	1f	-a]	1b-	-a
=98	=98	=98	=98	=98	=98	=98	=98	=98
2	2D	De-	2d	De-	2f	De-	2ff	De-
2	2D	-i	2d	-i	2f	-i	2ff	-i
2	2E-	Pa-	2c	Pa-	2g	Pa-	2ee-	Pa-
2	2E-	-tris	2B-	-tris	2g	-tris	2dd	-tris
1	1F	a-	1A	a-	1f	a-	1cc	a-
=99	=99	=99	=99	=99	=99	=99	=99	=99
0.	0.BB-	-men	0.B-	-men	0.f	-men	0.b-	-men
=100	=100	=100	=100	=100	=100	=100	=100	=100
2	2GG	De-	1r	.	2g	De-	2dd	De-
2	2GG	-i	.	.	2a	-i	2dd	-i
2	2C	Pa-	1r	.	2g	Pa-	2cc	Pa-
2	2C	-tris	.	.	2g	-tris	2b-	-tris
1	1D	a-	1r	.	1f#	a-	1a	a-
=101	=101	=101	=101	=101	=101	=101	=101	=101
2	1GG	men	2d	a-	1g	men	0.g	men
2	.	.	2d	men	.	.	.	.
2	1C	-a-	2c	a-	1e-	-a-	.	.
2	.	.	2B-	.	.	.	.	.
1	1D	.	1A	.	1d	.	.	.
=102	=102	=102	=102	=102	=102	=102	=102	=102
*	*M2/2	*	*M2/2	*	*M2/2	*	*M2/2	*
2	2GG	-men	2G	men	2d	-men	1r	.
2	2r	.	2r	.	2r	.	.	.
=103	=103	=103	=103	=103	=103	=103	=103	=103
4.	2.C	a-	2.c	-a-	2.g	a-	4.ee-	a-
8	.	.	.	.	.	.	8dd	.
4	.	.	.	.	.	.	4.cc	-men
8	4BB-	men	4c	-men	4g	men	.	.
8	.	.	.	.	.	.	8dd	.
=104	=104	=104	=104	=104	=104	=104	=104	=104
1	1C	a-	1c	a-	1g	a-	1ee-	a-
=105	=105	=105	=105	=105	=105	=105	=105	=105
1	[1GG	-men.	[1B	-men.	[1g	-men.	[1dd	-men.
=106	=106	=106	=106	=106	=106	=106	=106	=106
1	1GG]	.	1B]	.	1g]	.	1dd]	.
==	==	==	==	==	==	==	==	==
*-	*-	*-	*-	*-	*-	*-	*-	*-
